X: 132
% Old value - X: 1
T: Brian Boru's March (3-part)
R:March
M:6/4
L:1/4
Q:110
K:Aaeol
ed |:"Am"c3/2B/A Aed|cBA Adc|"G"B3/2A/G Gdc|BAG Ged |
"Am"c3/2B/A Aed|cBA A3|Acd "Em"e2 d|1 "Am"cBA Aed :|2 "Am"cBA A2 G |
|:"Am"Acd e2 d|e2 d e3/2c/A|"G"GAB d2 B|d2 B d3/2B/G|
"Am" Acd e2 d |e2 d e3/2c/A |A3/2c/d "Em"e2 d |1 "Am"c3/2B/A A2 G :|2 "Am"c3/2B/A A2 B |
|:"Am" c3/2B/A a2 a|c3/2B/A a2 a|"G"B3/2A/G g2 g|B3/2A/G g2 B|
"Am"c3/2B/A a2 a|c3/2B/A a2 b|c'ba "Em"gfe|dcB A2 B :|


